TACAN Panel/Ones Knob Label.svg

<?xml version="1.0" encoding="UTF-8" standalone="no"?>
<svg
   width="23.5mm"
   height="23.5mm"
   viewBox="0 0 88.818898 88.818898"
   version="1.1"
   xml:space="preserve"
   style="clip-rule:evenodd;fill-rule:evenodd;stroke-linecap:round;stroke-linejoin:round;stroke-miterlimit:1.5"
   id="svg14"
   sodipodi:docname="Ones Knob Label.svg"
   inkscape:version="1.4 (e7c3feb1, 2024-10-09)"
   xmlns:inkscape="http://www.inkscape.org/namespaces/inkscape"
   xmlns:sodipodi="http://sodipodi.sourceforge.net/DTD/sodipodi-0.dtd"
   xmlns="http://www.w3.org/2000/svg"
   xmlns:svg="http://www.w3.org/2000/svg"><defs
   id="defs14" /><sodipodi:namedview
   id="namedview14"
   pagecolor="#ffffff"
   bordercolor="#000000"
   borderopacity="0.25"
   inkscape:showpageshadow="2"
   inkscape:pageopacity="0.0"
   inkscape:pagecheckerboard="0"
   inkscape:deskcolor="#d1d1d1"
   inkscape:zoom="6.07"
   inkscape:cx="60.049423"
   inkscape:cy="46.787479"
   inkscape:window-width="2560"
   inkscape:window-height="1387"
   inkscape:window-x="0"
   inkscape:window-y="25"
   inkscape:window-maximized="1"
   inkscape:current-layer="svg14"
   inkscape:document-units="mm" />
    <g
   transform="matrix(0.08547621,0,0,0.08544651,-346.91855,-527.11663)"
   id="g14">
        <g
   id="Ones"
   transform="translate(-449.188,-477.697)">
            <g
   transform="matrix(2.30415,0,0,2.30415,-8298.33,-12707.1)"
   id="g1">
                <path
   d="m 5783.3,8399.54 c 124.41,0 225.41,101.01 225.41,225.42 0,124.41 -101,225.42 -225.41,225.42 -124.41,0 -225.42,-101.01 -225.42,-225.42 0,-124.41 101.01,-225.42 225.42,-225.42 z m 0,122.9 c -56.59,0 -102.52,45.94 -102.52,102.52 0,56.58 45.93,102.52 102.52,102.52 56.58,0 102.52,-45.94 102.52,-102.52 0,-56.58 -45.94,-102.52 -102.52,-102.52 z"
   id="path1" />
            </g>
            <g
   transform="translate(449.188,406.697)"
   id="g2">
                <path
   d="m 4578.05,6526 v 97"
   style="fill:none;stroke:#000000;stroke-width:16.67px"
   id="path2" />
            </g>
            <g
   transform="translate(-918.567,-1663.57)"
   id="g13">
                <g
   transform="matrix(116.261,119.42,-119.42,116.261,6163.69,8555.55)"
   id="g3">
                    <path
   d="m 0.314,-0.205 -0.001,0.001 c -0.016,0.025 -0.05,0.062 -0.066,0.072 L 0.188,-0.086 C 0.187,-0.085 0.187,-0.085 0.184,-0.083 0.178,-0.079 0.177,-0.078 0.174,-0.075 0.162,-0.065 0.157,-0.054 0.157,-0.041 0.157,-0.017 0.175,0 0.199,0 0.208,0 0.218,-0.004 0.228,-0.012 l 0.056,-0.045 c 0.047,-0.038 0.059,-0.049 0.084,-0.083 0.058,-0.076 0.093,-0.184 0.093,-0.284 0,-0.136 -0.085,-0.241 -0.194,-0.241 -0.109,0 -0.195,0.103 -0.195,0.233 0,0.132 0.085,0.235 0.195,0.235 0.015,0 0.027,-0.002 0.039,-0.005 z M 0.266,-0.581 c 0.063,0 0.112,0.066 0.112,0.149 0,0.083 -0.05,0.151 -0.11,0.151 -0.065,0 -0.114,-0.065 -0.114,-0.153 0,-0.083 0.049,-0.147 0.112,-0.147 z"
   style="fill:#ffffff;fill-rule:nonzero"
   id="path3" />
                </g>
                <g
   transform="matrix(41.5677,161.4,-161.4,41.5677,6271.13,8699.75)"
   id="g4">
                    <path
   d="m 0.148,-0.344 c -0.042,0.052 -0.057,0.089 -0.057,0.147 0,0.115 0.073,0.196 0.176,0.196 0.103,0 0.176,-0.081 0.176,-0.196 0,-0.057 -0.019,-0.107 -0.057,-0.147 L 0.384,-0.346 0.386,-0.347 c 0.03,-0.037 0.045,-0.079 0.045,-0.13 0,-0.11 -0.07,-0.191 -0.165,-0.191 -0.094,0 -0.164,0.081 -0.164,0.189 0,0.051 0.016,0.095 0.047,0.134 z M 0.267,-0.58 c 0.031,0 0.045,0.006 0.06,0.027 0.013,0.019 0.021,0.046 0.021,0.074 0,0.031 -0.009,0.059 -0.025,0.078 -0.014,0.016 -0.029,0.022 -0.057,0.022 -0.025,0 -0.041,-0.006 -0.053,-0.02 -0.018,-0.02 -0.028,-0.05 -0.028,-0.081 0,-0.031 0.014,-0.068 0.031,-0.085 0.012,-0.013 0.021,-0.015 0.051,-0.015 z m -0.001,0.276 c 0.035,0 0.049,0.006 0.066,0.025 0.018,0.02 0.028,0.051 0.028,0.083 0,0.03 -0.008,0.058 -0.024,0.078 -0.017,0.025 -0.031,0.03 -0.073,0.03 -0.031,0 -0.045,-0.005 -0.061,-0.024 -0.017,-0.02 -0.028,-0.053 -0.028,-0.086 0,-0.026 0.008,-0.053 0.02,-0.072 0.018,-0.024 0.038,-0.034 0.072,-0.034 z"
   style="fill:#ffffff;fill-rule:nonzero"
   id="path4" />
                </g>
                <g
   transform="matrix(-44.076,160.733,-160.733,-44.076,6292.61,8878.65)"
   id="g5">
                    <path
   d="M 0.331,-0.582 0.198,-0.075 C 0.193,-0.056 0.191,-0.044 0.191,-0.039 0.191,-0.017 0.209,0 0.232,0 0.257,0 0.266,-0.01 0.275,-0.045 L 0.42,-0.599 C 0.423,-0.612 0.424,-0.615 0.424,-0.622 0.424,-0.65 0.405,-0.666 0.37,-0.666 H 0.165 c -0.038,0 -0.055,0.013 -0.055,0.043 0,0.014 0.007,0.029 0.018,0.036 0.007,0.004 0.012,0.005 0.03,0.005 z"
   style="fill:#ffffff;fill-rule:nonzero"
   id="path5" />
                </g>
                <g
   transform="matrix(-118.026,117.676,-117.676,-118.026,6222.41,9044.25)"
   id="g6">
                    <path
   d="M 0.219,-0.46 C 0.231,-0.477 0.243,-0.493 0.248,-0.497 0.261,-0.51 0.275,-0.522 0.288,-0.534 L 0.293,-0.538 0.346,-0.58 c 0.011,-0.009 0.018,-0.015 0.019,-0.016 0.006,-0.007 0.009,-0.015 0.009,-0.025 0,-0.016 -0.008,-0.032 -0.018,-0.038 -0.005,-0.003 -0.024,-0.007 -0.029,-0.006 -0.003,0 -0.014,0.005 -0.016,0.007 l -0.067,0.053 c -0.108,0.086 -0.172,0.218 -0.172,0.358 0,0.144 0.081,0.248 0.194,0.248 0.108,0 0.194,-0.104 0.194,-0.235 0,-0.131 -0.087,-0.233 -0.197,-0.233 -0.014,0 -0.027,0.002 -0.038,0.005 z m 0.048,0.078 c 0.062,0 0.111,0.066 0.111,0.149 0,0.082 -0.051,0.151 -0.111,0.151 -0.065,0 -0.113,-0.065 -0.113,-0.152 0,-0.084 0.049,-0.148 0.113,-0.148 z"
   style="fill:#ffffff;fill-rule:nonzero"
   id="path6" />
                </g>
                <g
   transform="matrix(-160.869,43.5756,-43.5756,-160.869,6079.52,9153.34)"
   id="g7">
                    <path
   d="m 0.194,-0.571 h 0.138 c 0.039,0 0.053,-0.011 0.053,-0.04 0,-0.03 -0.016,-0.043 -0.051,-0.043 H 0.161 c -0.04,0 -0.049,0.009 -0.049,0.05 v 0.219 c 0,0.027 0.002,0.034 0.01,0.043 0.008,0.009 0.021,0.014 0.034,0.014 0.014,0 0.018,-0.002 0.027,-0.009 0.022,-0.021 0.041,-0.03 0.063,-0.03 0.06,0 0.107,0.062 0.107,0.143 0,0.078 -0.047,0.14 -0.106,0.14 -0.029,0 -0.055,-0.014 -0.072,-0.039 -0.016,-0.023 -0.018,-0.025 -0.038,-0.025 -0.024,0 -0.041,0.017 -0.041,0.04 0,0.015 0.005,0.024 0.023,0.045 0.041,0.044 0.077,0.062 0.127,0.062 0.106,0 0.19,-0.099 0.19,-0.224 0,-0.125 -0.084,-0.225 -0.188,-0.225 -0.017,0 -0.032,0.003 -0.046,0.008 L 0.194,-0.44 Z"
   style="fill:#ffffff;fill-rule:nonzero"
   id="path7" />
                </g>
                <g
   transform="matrix(-161.269,-42.0706,42.0706,-161.269,5901.06,9177)"
   id="g8">
                    <path
   d="m 0.155,-0.204 0.111,-0.388 0.001,-0.005 c 0.001,-0.001 0.002,-0.005 0.004,-0.012 0.002,-0.006 0.003,-0.012 0.003,-0.015 0,-0.023 -0.02,-0.041 -0.044,-0.041 -0.019,0 -0.035,0.013 -0.037,0.032 C 0.192,-0.631 0.192,-0.63 0.192,-0.63 L 0.069,-0.199 0.067,-0.191 C 0.061,-0.17 0.06,-0.167 0.06,-0.16 c 0,0.017 0.01,0.032 0.024,0.036 0.007,0.002 0.013,0.003 0.033,0.003 h 0.18 v 0.063 c 0,0.028 0.002,0.035 0.009,0.044 0.008,0.01 0.021,0.015 0.034,0.015 0.029,0 0.039,-0.015 0.039,-0.06 V -0.121 H 0.42 c 0.038,0 0.054,-0.012 0.054,-0.04 0,-0.016 -0.009,-0.033 -0.021,-0.038 C 0.445,-0.203 0.439,-0.204 0.423,-0.204 H 0.379 v -0.153 c 0.003,-0.027 -0.014,-0.045 -0.041,-0.045 -0.028,0 -0.041,0.015 -0.041,0.05 v 0.148 z"
   style="fill:#ffffff;fill-rule:nonzero"
   id="path8" />
                </g>
                <g
   transform="matrix(-119.073,-116.617,116.617,-119.073,5734.62,9108.89)"
   id="g9">
                    <path
   d="m 0.304,-0.463 0.088,-0.11 c 0.023,-0.029 0.024,-0.031 0.024,-0.049 0,-0.014 -0.009,-0.031 -0.02,-0.037 C 0.388,-0.663 0.377,-0.665 0.356,-0.665 H 0.164 c -0.036,0 -0.052,0.013 -0.052,0.042 0,0.03 0.015,0.041 0.056,0.041 h 0.126 l -0.099,0.124 c -0.002,0.003 -0.005,0.005 -0.006,0.008 -0.002,0.001 -0.003,0.003 -0.004,0.004 -0.011,0.013 -0.014,0.02 -0.014,0.031 0,0.023 0.017,0.031 0.06,0.031 0.05,-0.001 0.072,0.004 0.092,0.022 0.033,0.028 0.053,0.078 0.053,0.13 0,0.083 -0.049,0.149 -0.112,0.149 -0.049,0 -0.087,-0.037 -0.107,-0.105 -0.008,-0.027 -0.016,-0.034 -0.038,-0.034 -0.024,0 -0.043,0.017 -0.043,0.04 0,0.01 0.003,0.023 0.009,0.04 0.034,0.09 0.1,0.143 0.178,0.143 0.109,0 0.195,-0.103 0.195,-0.234 0,-0.053 -0.014,-0.104 -0.041,-0.145 C 0.393,-0.416 0.361,-0.44 0.304,-0.463 Z"
   style="fill:#ffffff;fill-rule:nonzero"
   id="path9" />
                </g>
                <g
   transform="matrix(-45.4492,-160.35,160.35,-45.4492,5623.67,8967.14)"
   id="g10">
                    <path
   d="m 0.194,-0.083 0.001,-0.003 c 0.021,-0.095 0.07,-0.175 0.14,-0.224 0.024,-0.017 0.028,-0.02 0.038,-0.03 0.035,-0.034 0.055,-0.085 0.055,-0.141 0,-0.105 -0.07,-0.189 -0.158,-0.189 -0.086,0 -0.158,0.084 -0.158,0.185 0,0.026 0.002,0.036 0.01,0.045 0.008,0.008 0.019,0.013 0.032,0.013 0.026,0 0.04,-0.016 0.04,-0.045 V -0.478 L 0.193,-0.485 C 0.191,-0.5 0.2,-0.532 0.21,-0.549 c 0.015,-0.024 0.037,-0.038 0.06,-0.038 0.041,0 0.075,0.047 0.075,0.105 0,0.044 -0.014,0.074 -0.045,0.095 C 0.218,-0.329 0.171,-0.269 0.136,-0.176 0.119,-0.13 0.105,-0.069 0.105,-0.039 0.105,-0.009 0.118,0 0.159,0 h 0.222 c 0.018,-0.001 0.02,-0.001 0.028,-0.006 0.011,-0.008 0.018,-0.022 0.018,-0.037 0,-0.027 -0.015,-0.04 -0.046,-0.04 z"
   style="fill:#ffffff;fill-rule:nonzero"
   id="path10" />
                </g>
                <g
   transform="matrix(40.0558,-161.782,161.782,40.0558,5597.92,8789.09)"
   id="g11">
                    <path
   d="m 0.305,-0.617 c 0,-0.032 -0.012,-0.047 -0.038,-0.047 -0.027,0 -0.039,0.015 -0.039,0.05 v 0.567 c 0,0.021 0.001,0.026 0.006,0.032 0.009,0.011 0.02,0.016 0.033,0.016 0.026,0 0.038,-0.015 0.038,-0.048 z"
   style="fill:#ffffff;fill-rule:nonzero"
   id="path11" />
                </g>
                <g
   transform="matrix(118.551,-117.147,117.147,118.551,5670.12,8613.79)"
   id="g12">
                    <path
   d="m 0.267,-0.669 c -0.055,0 -0.115,0.039 -0.145,0.096 -0.032,0.057 -0.049,0.141 -0.049,0.235 0,0.122 0.022,0.21 0.067,0.271 C 0.168,-0.029 0.223,0 0.266,0 0.306,0 0.356,-0.025 0.385,-0.06 0.436,-0.12 0.46,-0.208 0.46,-0.331 0.46,-0.457 0.433,-0.557 0.385,-0.611 0.352,-0.646 0.306,-0.669 0.267,-0.669 Z m 0.002,0.085 c 0.065,0 0.108,0.103 0.108,0.258 0,0.082 -0.014,0.152 -0.039,0.192 -0.018,0.029 -0.048,0.05 -0.072,0.05 -0.022,0 -0.051,-0.019 -0.066,-0.044 -0.03,-0.049 -0.044,-0.116 -0.044,-0.212 0,-0.147 0.045,-0.244 0.113,-0.244 z"
   style="fill:#ffffff;fill-rule:nonzero"
   id="path12" />
                </g>
            </g>
        </g>
    </g>
</svg>

<?xml version="1.0" encoding="UTF-8" standalone="no"?>
<!DOCTYPE svg PUBLIC "-//W3C//DTD SVG 1.1//EN" "http://www.w3.org/Graphics/SVG/1.1/DTD/svg11.dtd">
<svg width="100%" height="100%" viewBox="0 0 63 63" version="1.1" xmlns="http://www.w3.org/2000/svg" xmlns:xlink="http://www.w3.org/1999/xlink" xml:space="preserve" xmlns:serif="http://www.serif.com/" style="fill-rule:evenodd;clip-rule:evenodd;stroke-linecap:round;stroke-linejoin:round;stroke-miterlimit:1.5;">
    <g transform="matrix(0.06,0,0,0.06,-243.519,-370.137)">
        <g id="Ones" transform="matrix(1,0,0,1,-449.188,-477.697)">
            <g transform="matrix(2.30415,0,0,2.30415,-8298.33,-12707.1)">
                <path d="M5783.3,8399.54C5907.71,8399.54 6008.71,8500.55 6008.71,8624.96C6008.71,8749.37 5907.71,8850.38 5783.3,8850.38C5658.89,8850.38 5557.88,8749.37 5557.88,8624.96C5557.88,8500.55 5658.89,8399.54 5783.3,8399.54ZM5783.3,8522.44C5726.71,8522.44 5680.78,8568.38 5680.78,8624.96C5680.78,8681.54 5726.71,8727.48 5783.3,8727.48C5839.88,8727.48 5885.82,8681.54 5885.82,8624.96C5885.82,8568.38 5839.88,8522.44 5783.3,8522.44Z"/>
            </g>
            <g transform="matrix(1,0,0,1,449.188,406.697)">
                <path d="M4578.05,6526L4578.05,6623" style="fill:none;stroke:black;stroke-width:16.67px;"/>
            </g>
            <g transform="matrix(1,0,0,1,-918.567,-1663.57)">
                <g transform="matrix(116.261,119.42,-119.42,116.261,6163.69,8555.55)">
                    <path d="M0.314,-0.205L0.313,-0.204C0.297,-0.179 0.263,-0.142 0.247,-0.132L0.188,-0.086C0.187,-0.085 0.187,-0.085 0.184,-0.083C0.178,-0.079 0.177,-0.078 0.174,-0.075C0.162,-0.065 0.157,-0.054 0.157,-0.041C0.157,-0.017 0.175,-0 0.199,-0C0.208,-0 0.218,-0.004 0.228,-0.012L0.284,-0.057C0.331,-0.095 0.343,-0.106 0.368,-0.14C0.426,-0.216 0.461,-0.324 0.461,-0.424C0.461,-0.56 0.376,-0.665 0.267,-0.665C0.158,-0.665 0.072,-0.562 0.072,-0.432C0.072,-0.3 0.157,-0.197 0.267,-0.197C0.282,-0.197 0.294,-0.199 0.306,-0.202L0.314,-0.205ZM0.266,-0.581C0.329,-0.581 0.378,-0.515 0.378,-0.432C0.378,-0.349 0.328,-0.281 0.268,-0.281C0.203,-0.281 0.154,-0.346 0.154,-0.434C0.154,-0.517 0.203,-0.581 0.266,-0.581Z" style="fill:white;fill-rule:nonzero;"/>
                </g>
                <g transform="matrix(41.5677,161.4,-161.4,41.5677,6271.13,8699.75)">
                    <path d="M0.148,-0.344C0.106,-0.292 0.091,-0.255 0.091,-0.197C0.091,-0.082 0.164,-0.001 0.267,-0.001C0.37,-0.001 0.443,-0.082 0.443,-0.197C0.443,-0.254 0.424,-0.304 0.386,-0.344L0.384,-0.346L0.386,-0.347C0.416,-0.384 0.431,-0.426 0.431,-0.477C0.431,-0.587 0.361,-0.668 0.266,-0.668C0.172,-0.668 0.102,-0.587 0.102,-0.479C0.102,-0.428 0.118,-0.384 0.149,-0.345L0.148,-0.344ZM0.267,-0.58C0.298,-0.58 0.312,-0.574 0.327,-0.553C0.34,-0.534 0.348,-0.507 0.348,-0.479C0.348,-0.448 0.339,-0.42 0.323,-0.401C0.309,-0.385 0.294,-0.379 0.266,-0.379C0.241,-0.379 0.225,-0.385 0.213,-0.399C0.195,-0.419 0.185,-0.449 0.185,-0.48C0.185,-0.511 0.199,-0.548 0.216,-0.565C0.228,-0.578 0.237,-0.58 0.267,-0.58ZM0.266,-0.304C0.301,-0.304 0.315,-0.298 0.332,-0.279C0.35,-0.259 0.36,-0.228 0.36,-0.196C0.36,-0.166 0.352,-0.138 0.336,-0.118C0.319,-0.093 0.305,-0.088 0.263,-0.088C0.232,-0.088 0.218,-0.093 0.202,-0.112C0.185,-0.132 0.174,-0.165 0.174,-0.198C0.174,-0.224 0.182,-0.251 0.194,-0.27C0.212,-0.294 0.232,-0.304 0.266,-0.304Z" style="fill:white;fill-rule:nonzero;"/>
                </g>
                <g transform="matrix(-44.076,160.733,-160.733,-44.076,6292.61,8878.65)">
                    <path d="M0.331,-0.582L0.198,-0.075C0.193,-0.056 0.191,-0.044 0.191,-0.039C0.191,-0.017 0.209,-0 0.232,-0C0.257,-0 0.266,-0.01 0.275,-0.045L0.42,-0.599C0.423,-0.612 0.424,-0.615 0.424,-0.622C0.424,-0.65 0.405,-0.666 0.37,-0.666L0.165,-0.666C0.127,-0.666 0.11,-0.653 0.11,-0.623C0.11,-0.609 0.117,-0.594 0.128,-0.587C0.135,-0.583 0.14,-0.582 0.158,-0.582L0.331,-0.582Z" style="fill:white;fill-rule:nonzero;"/>
                </g>
                <g transform="matrix(-118.026,117.676,-117.676,-118.026,6222.41,9044.25)">
                    <path d="M0.219,-0.46C0.231,-0.477 0.243,-0.493 0.248,-0.497C0.261,-0.51 0.275,-0.522 0.288,-0.534L0.293,-0.538L0.346,-0.58C0.357,-0.589 0.364,-0.595 0.365,-0.596C0.371,-0.603 0.374,-0.611 0.374,-0.621C0.374,-0.637 0.366,-0.653 0.356,-0.659C0.351,-0.662 0.332,-0.666 0.327,-0.665C0.324,-0.665 0.313,-0.66 0.311,-0.658L0.244,-0.605C0.136,-0.519 0.072,-0.387 0.072,-0.247C0.072,-0.103 0.153,0.001 0.266,0.001C0.374,0.001 0.46,-0.103 0.46,-0.234C0.46,-0.365 0.373,-0.467 0.263,-0.467C0.249,-0.467 0.236,-0.465 0.225,-0.462L0.219,-0.46ZM0.267,-0.382C0.329,-0.382 0.378,-0.316 0.378,-0.233C0.378,-0.151 0.327,-0.082 0.267,-0.082C0.202,-0.082 0.154,-0.147 0.154,-0.234C0.154,-0.318 0.203,-0.382 0.267,-0.382Z" style="fill:white;fill-rule:nonzero;"/>
                </g>
                <g transform="matrix(-160.869,43.5756,-43.5756,-160.869,6079.52,9153.34)">
                    <path d="M0.194,-0.571L0.332,-0.571C0.371,-0.571 0.385,-0.582 0.385,-0.611C0.385,-0.641 0.369,-0.654 0.334,-0.654L0.161,-0.654C0.121,-0.654 0.112,-0.645 0.112,-0.604L0.112,-0.385C0.112,-0.358 0.114,-0.351 0.122,-0.342C0.13,-0.333 0.143,-0.328 0.156,-0.328C0.17,-0.328 0.174,-0.33 0.183,-0.337C0.205,-0.358 0.224,-0.367 0.246,-0.367C0.306,-0.367 0.353,-0.305 0.353,-0.224C0.353,-0.146 0.306,-0.084 0.247,-0.084C0.218,-0.084 0.192,-0.098 0.175,-0.123C0.159,-0.146 0.157,-0.148 0.137,-0.148C0.113,-0.148 0.096,-0.131 0.096,-0.108C0.096,-0.093 0.101,-0.084 0.119,-0.063C0.16,-0.019 0.196,-0.001 0.246,-0.001C0.352,-0.001 0.436,-0.1 0.436,-0.225C0.436,-0.35 0.352,-0.45 0.248,-0.45C0.231,-0.45 0.216,-0.447 0.202,-0.442L0.194,-0.44L0.194,-0.571Z" style="fill:white;fill-rule:nonzero;"/>
                </g>
                <g transform="matrix(-161.269,-42.0706,42.0706,-161.269,5901.06,9177)">
                    <path d="M0.155,-0.204L0.266,-0.592L0.267,-0.597C0.268,-0.598 0.269,-0.602 0.271,-0.609C0.273,-0.615 0.274,-0.621 0.274,-0.624C0.274,-0.647 0.254,-0.665 0.23,-0.665C0.211,-0.665 0.195,-0.652 0.193,-0.633C0.192,-0.631 0.192,-0.63 0.192,-0.63L0.069,-0.199L0.067,-0.191C0.061,-0.17 0.06,-0.167 0.06,-0.16C0.06,-0.143 0.07,-0.128 0.084,-0.124C0.091,-0.122 0.097,-0.121 0.117,-0.121L0.297,-0.121L0.297,-0.058C0.297,-0.03 0.299,-0.023 0.306,-0.014C0.314,-0.004 0.327,0.001 0.34,0.001C0.369,0.001 0.379,-0.014 0.379,-0.059L0.379,-0.121L0.42,-0.121C0.458,-0.121 0.474,-0.133 0.474,-0.161C0.474,-0.177 0.465,-0.194 0.453,-0.199C0.445,-0.203 0.439,-0.204 0.423,-0.204L0.379,-0.204L0.379,-0.357C0.382,-0.384 0.365,-0.402 0.338,-0.402C0.31,-0.402 0.297,-0.387 0.297,-0.352L0.297,-0.204L0.155,-0.204Z" style="fill:white;fill-rule:nonzero;"/>
                </g>
                <g transform="matrix(-119.073,-116.617,116.617,-119.073,5734.62,9108.89)">
                    <path d="M0.304,-0.463L0.392,-0.573C0.415,-0.602 0.416,-0.604 0.416,-0.622C0.416,-0.636 0.407,-0.653 0.396,-0.659C0.388,-0.663 0.377,-0.665 0.356,-0.665L0.164,-0.665C0.128,-0.665 0.112,-0.652 0.112,-0.623C0.112,-0.593 0.127,-0.582 0.168,-0.582L0.294,-0.582L0.195,-0.458C0.193,-0.455 0.19,-0.453 0.189,-0.45C0.187,-0.449 0.186,-0.447 0.185,-0.446C0.174,-0.433 0.171,-0.426 0.171,-0.415C0.171,-0.392 0.188,-0.384 0.231,-0.384C0.281,-0.385 0.303,-0.38 0.323,-0.362C0.356,-0.334 0.376,-0.284 0.376,-0.232C0.376,-0.149 0.327,-0.083 0.264,-0.083C0.215,-0.083 0.177,-0.12 0.157,-0.188C0.149,-0.215 0.141,-0.222 0.119,-0.222C0.095,-0.222 0.076,-0.205 0.076,-0.182C0.076,-0.172 0.079,-0.159 0.085,-0.142C0.119,-0.052 0.185,0.001 0.263,0.001C0.372,0.001 0.458,-0.102 0.458,-0.233C0.458,-0.286 0.444,-0.337 0.417,-0.378C0.393,-0.416 0.361,-0.44 0.304,-0.463Z" style="fill:white;fill-rule:nonzero;"/>
                </g>
                <g transform="matrix(-45.4492,-160.35,160.35,-45.4492,5623.67,8967.14)">
                    <path d="M0.194,-0.083L0.195,-0.086C0.216,-0.181 0.265,-0.261 0.335,-0.31C0.359,-0.327 0.363,-0.33 0.373,-0.34C0.408,-0.374 0.428,-0.425 0.428,-0.481C0.428,-0.586 0.358,-0.67 0.27,-0.67C0.184,-0.67 0.112,-0.586 0.112,-0.485C0.112,-0.459 0.114,-0.449 0.122,-0.44C0.13,-0.432 0.141,-0.427 0.154,-0.427C0.18,-0.427 0.194,-0.443 0.194,-0.472L0.194,-0.478L0.193,-0.485C0.191,-0.5 0.2,-0.532 0.21,-0.549C0.225,-0.573 0.247,-0.587 0.27,-0.587C0.311,-0.587 0.345,-0.54 0.345,-0.482C0.345,-0.438 0.331,-0.408 0.3,-0.387C0.218,-0.329 0.171,-0.269 0.136,-0.176C0.119,-0.13 0.105,-0.069 0.105,-0.039C0.105,-0.009 0.118,-0 0.159,-0L0.381,-0C0.399,-0.001 0.401,-0.001 0.409,-0.006C0.42,-0.014 0.427,-0.028 0.427,-0.043C0.427,-0.07 0.412,-0.083 0.381,-0.083L0.194,-0.083Z" style="fill:white;fill-rule:nonzero;"/>
                </g>
                <g transform="matrix(40.0558,-161.782,161.782,40.0558,5597.92,8789.09)">
                    <path d="M0.305,-0.617C0.305,-0.649 0.293,-0.664 0.267,-0.664C0.24,-0.664 0.228,-0.649 0.228,-0.614L0.228,-0.047C0.228,-0.026 0.229,-0.021 0.234,-0.015C0.243,-0.004 0.254,0.001 0.267,0.001C0.293,0.001 0.305,-0.014 0.305,-0.047L0.305,-0.617Z" style="fill:white;fill-rule:nonzero;"/>
                </g>
                <g transform="matrix(118.551,-117.147,117.147,118.551,5670.12,8613.79)">
                    <path d="M0.267,-0.669C0.212,-0.669 0.152,-0.63 0.122,-0.573C0.09,-0.516 0.073,-0.432 0.073,-0.338C0.073,-0.216 0.095,-0.128 0.14,-0.067C0.168,-0.029 0.223,-0 0.266,-0C0.306,-0 0.356,-0.025 0.385,-0.06C0.436,-0.12 0.46,-0.208 0.46,-0.331C0.46,-0.457 0.433,-0.557 0.385,-0.611C0.352,-0.646 0.306,-0.669 0.267,-0.669ZM0.269,-0.584C0.334,-0.584 0.377,-0.481 0.377,-0.326C0.377,-0.244 0.363,-0.174 0.338,-0.134C0.32,-0.105 0.29,-0.084 0.266,-0.084C0.244,-0.084 0.215,-0.103 0.2,-0.128C0.17,-0.177 0.156,-0.244 0.156,-0.34C0.156,-0.487 0.201,-0.584 0.269,-0.584Z" style="fill:white;fill-rule:nonzero;"/>
                </g>
            </g>
        </g>
    </g>
</svg>
